X:52
T:Boys of Ballysadare, The
R:slip jig
Z:Julie Ross, from Thomas Hirschman
M:9/8
K:G
D2G G2A B2d|ege d2e g3|D2G G2A B2G|AGA B2G E3|
D2G G2A B2d|ege d2e g2a|b2a g2e d2B|AGA B2G E2G||
B2d d2B d3|dBd def g3|B2d d2B d2B|AGA B2G E2G|
B2d d2B d3|dBd def g2a|b2a g2e d2B|AGA B2G E3||
